digitransit-component/packages/digitransit-component-icon/src/assets/tram-waltti.svg

<svg width="24" height="24" viewBox="0 0 24 24" fill="none" xmlns="http://www.w3.org/2000/svg">
<path d="M17.6583 18.3747V8.09597C17.6583 7.22135 16.9488 4.91499 16.0742 4.91499H13.3335L14.1319 3.25296H15.4748V2.4012H8.5269V3.25296H9.88413L10.6825 4.91499H7.92661C7.05199 4.91499 6.34247 7.22135 6.34247 8.09597V18.3747C6.34247 19.2493 7.05114 19.958 7.92576 19.9588L6.7421 21.6014H8.47441L9.65807 19.9588H14.3427L15.5264 21.6014H17.2587L16.0751 19.9588C16.9497 19.958 17.6583 19.2493 17.6583 18.3747ZM10.8189 3.25296H13.198L12.3996 4.91499H11.6173L10.8189 3.25296ZM9.48534 5.92593H14.5155V6.77769H9.48534V5.92593ZM7.47363 17.2249C7.47363 16.7465 7.86141 16.3587 8.33979 16.3587C8.81816 16.3587 9.20594 16.7465 9.20594 17.2249C9.20594 17.7033 8.81816 18.091 8.33979 18.091C7.86141 18.091 7.47363 17.7033 7.47363 17.2249ZM15.6602 18.091C15.1818 18.091 14.794 17.7033 14.794 17.2249C14.794 16.7465 15.1818 16.3587 15.6602 16.3587C16.1386 16.3587 16.5263 16.7465 16.5263 17.2249C16.5263 17.7033 16.1386 18.091 15.6602 18.091ZM16.5263 14.6874C16.5263 14.8923 16.4171 15.0709 16.2588 15.1243C15.628 15.3359 13.9541 15.5078 12 15.5078C10.0458 15.5078 8.37196 15.3359 7.74118 15.1243C7.58285 15.0709 7.47363 14.8923 7.47363 14.6874V8.07565C7.47363 7.82588 7.63535 7.62268 7.83601 7.62268H16.1648C16.3646 7.62268 16.5272 7.82503 16.5272 8.07565V14.6874H16.5263Z" fill="white"/>
</svg>

<svg xmlns="http://www.w3.org/2000/svg" width="24" height="24" fill="none" viewBox="0 0 24 24">
 <path fill="#fff" d="M17.658 18.375V8.096c0-.875-.71-3.181-1.584-3.181h-2.74l.798-1.662h1.343v-.852H8.527v.852h1.357l.798 1.662H7.927c-.875 0-1.585 2.306-1.585 3.181v10.279c0 .874.71 1.583 1.584 1.584L6.742 21.6h1.732l1.184-1.642h4.685l1.183 1.642h1.733l-1.184-1.642c.875-.001 1.583-.71 1.583-1.584m-6.84-15.122h2.38L12.4 4.915h-.783zM9.486 5.926h5.03v.852h-5.03zM7.474 17.225a.866.866 0 1 1 1.732 0 .866.866 0 0 1-1.732 0m8.186.866a.866.866 0 1 1 0-1.732.866.866 0 0 1 0 1.732m.866-3.404c0 .205-.109.384-.267.437-.631.212-2.305.384-4.259.384s-3.628-.172-4.259-.384c-.158-.053-.267-.232-.267-.437V8.076c0-.25.161-.453.362-.453h8.329c.2 0 .362.202.362.453v6.611"/>
</svg>
